src/img/event_icons/fork.svg

<svg fill="none" height="15" viewBox="0 0 15 15" width="15" xmlns="http://www.w3.org/2000/svg"><path d="m12.8672 7.12109c-.1914.30079-.4375.57422-.7383.76563-.3008.1914-.6289.30078-.9844.35547-.6015.05469-1.17575-.10938-1.66794-.4375l-6.61718 6.64451c-.21876.1914-.49219.3008-.76563.3008-.30078 0-.57422-.1094-.79297-.3008-.1914-.2187-.328124-.4922-.328124-.793 0-.2734.136724-.5468.328124-.7656l6.64453-6.61716c-.32812-.49219-.49219-1.06641-.4375-1.66797.05469-.35547.16407-.68359.35547-.98438.19141-.30078.46484-.54687.76563-.73828l3.22659-2.050779c.082-.054687.1914-.082031.3007-.054687.1094 0 .1915.054687.2735.164062.0547.082034.082.164064.082.273434 0 .10938-.0547.21875-.1367.30078l-2.76172 2.78907.32813.32812 3.19919-2.54297c.0547-.05468.1641-.08203.2461-.08203.0821.02735.1641.05469.2461.10938.0547.08203.082.16406.1094.24609 0 .08203-.0274.19141-.082.2461l-2.543 3.19921.3281.32813 2.7891-2.76172c.082-.08203.1914-.13672.3008-.13672.1093 0 .1914.02734.2734.08203.1094.08203.1641.16407.1641.27344.0273.10937 0 .21875-.0547.30078z" fill="#000"/></svg>

<svg width="15" height="15" viewBox="0 0 15 15" fill="none" xmlns="http://www.w3.org/2000/svg">
<path d="M12.8672 7.12109C12.6758 7.42188 12.4297 7.69531 12.1289 7.88672C11.8281 8.07812 11.5 8.1875 11.1445 8.24219C10.543 8.29688 9.96875 8.13281 9.47656 7.80469L2.85938 14.4492C2.64062 14.6406 2.36719 14.75 2.09375 14.75C1.79297 14.75 1.51953 14.6406 1.30078 14.4492C1.10938 14.2305 0.972656 13.957 0.972656 13.6562C0.972656 13.3828 1.10938 13.1094 1.30078 12.8906L7.94531 6.27344C7.61719 5.78125 7.45312 5.20703 7.50781 4.60547C7.5625 4.25 7.67188 3.92188 7.86328 3.62109C8.05469 3.32031 8.32812 3.07422 8.62891 2.88281L11.8555 0.832031C11.9375 0.777344 12.0469 0.75 12.1562 0.777344C12.2656 0.777344 12.3477 0.832031 12.4297 0.941406C12.4844 1.02344 12.5117 1.10547 12.5117 1.21484C12.5117 1.32422 12.457 1.43359 12.375 1.51562L9.61328 4.30469L9.94141 4.63281L13.1406 2.08984C13.1953 2.03516 13.3047 2.00781 13.3867 2.00781C13.4688 2.03516 13.5508 2.0625 13.6328 2.11719C13.6875 2.19922 13.7148 2.28125 13.7422 2.36328C13.7422 2.44531 13.7148 2.55469 13.6602 2.60938L11.1172 5.80859L11.4453 6.13672L14.2344 3.375C14.3164 3.29297 14.4258 3.23828 14.5352 3.23828C14.6445 3.23828 14.7266 3.26562 14.8086 3.32031C14.918 3.40234 14.9727 3.48438 14.9727 3.59375C15 3.70312 14.9727 3.8125 14.918 3.89453L12.8672 7.12109Z" fill="black"/>
</svg>
